X: 41941
T: Walking In The Parlor
R: reel
M: 4/4
K: Dmajor
|:defd Bcde|f3d edBA|defd Bcde|fdec d2 d2|
defd Bcde|f3d edBA|defd Bcde|fdec d2 d2|
defd Bcde|f3d edBA|defd Bcde|fdec d2 d2||
|:d4 g3a|baga ba3|bage dega|bgaf g3e|
bage dega|bgag ba a2|bage dega|bgaf g3b|
bage dega|baga ba3|gedB GABG|AGED G3A|
|:GABG DEGA|B3G AGED|GABG DEGA|BGAF G3A|
GABG DEGA|B3G AGED|GABG DEGA|BGAF G3A||
|:fdfd A2d2|fdfd e2d2|fdfd A2d2|fdec d4:|

